X:9072
T:La Sautière
A:Normandie
O:France
M:6/8
Q:1/4=180
K:F
FFF|A2 AG2A|F2 z FFF|A2 AG2A|F2 z FGA|BBB B2 A|
G6|c6|A2 A A2G|A3 F2A|A2 A G2A|F3 E3| D3||
W: Mon père m'a donné un mari
W: Quatorze et puis quatre font dix-huit
W: La première nuit qu'avec lui j'couchis
W: Ah!
W: Onze et douze et treize
W: Quatorze et deux font seize.


